public/assets/brands/leogang.svg

<svg width="212" height="212" viewBox="0 0 212 212" fill="none" xmlns="http://www.w3.org/2000/svg">
<g clip-path="url(#clip0_142_2252)">
<path d="M206 0H6C2.68629 0 0 2.68629 0 6V206C0 209.314 2.68629 212 6 212H206C209.314 212 212 209.314 212 206V6C212 2.68629 209.314 0 206 0Z" fill="#F5F5F5"/>
<path d="M118.38 102.62C120.62 107.63 104.59 105 95.6799 108.99C86.7799 112.98 88.3799 122.06 86.1399 117.05C83.2899 110.68 89.4099 104.71 98.1999 100.78C98.9999 100.43 99.7999 100.1 100.59 99.82C101.12 99.35 101.25 98.72 100.88 97.89C98.6399 92.89 89.6099 92.06 80.7099 96.05C74.0199 99.05 68.8699 103.21 68.0499 107.85C65.6499 107.83 59.9699 106.89 63.6099 98.12C64.9499 95.22 67.8999 90.54 74.0299 87.93C83.0099 84.11 97.1799 86.57 94.9399 81.57C92.6999 76.57 83.6699 75.74 74.7699 79.73C71.4299 81.22 68.3599 83.61 65.9499 86.26C65.8899 86.2 62.4999 83.11 64.0999 80.22C65.8199 77.11 69.2799 74.94 73.3999 73.73C82.7599 70.98 95.3399 73.26 93.0999 68.25C90.8599 63.24 81.8299 62.42 72.9299 66.4C71.2599 67.15 69.6599 68.04 68.1399 69.07C66.9899 67.27 65.7599 65.26 66.1599 63.27C67.2499 57.78 77.9799 61.45 79.6099 54.73C81.2299 48.01 89.9699 46.84 94.5799 50.51C102.88 50.07 113.86 48.91 118.2 52.7C125.03 58.67 134.14 57.74 141.66 61.27C141.48 67.16 147.72 74.17 141.61 78.9C142.23 81.32 149.91 80.43 151.84 79.83C151.53 83.27 143.35 84.2 140.47 85.32C142.5 86.69 142.61 88.64 140.24 90.23C137.9 92.32 139.83 93.46 140.16 96.64C140.45 99.48 139.89 102.01 137.54 104.09C135.52 106.33 130.63 107.78 126.09 104.98C124.09 103.75 121.74 102.39 117.71 101.44C117.98 101.79 118.21 102.18 118.4 102.59M97.3499 61.45C97.3499 64.33 97.1599 62.5 97.2099 66.33C97.2099 66.33 97.5899 68.17 97.9899 72.04C99.2999 85.02 110.57 101.44 134.32 97.01L134.54 96.91L134.44 94.95L134.16 94.76C130.58 94.01 112.86 89.76 113.77 79.08C113.7 77.75 114.13 76.44 114.96 75.4C118.13 70.34 122.91 68.13 128.8 68.31L137.18 69.34C138.98 66.31 133.09 66.12 135.89 63.53C132.86 61.73 126.97 61.55 125.09 63.12C124.68 64.62 126.24 66 124.29 66.59C120.85 66.28 122.52 60.81 118.15 61.52L118.82 64.92C116.3 63.58 111.39 63.35 110.74 60.44C112.65 59.36 114.56 58.77 116.45 57.2C109.87 53.14 95.7399 56.33 94.2899 55.36C91.6599 53.6 86.2899 52.82 86.0299 56.34C85.7999 59.54 88.4299 60.12 92.8599 60.9L97.3399 61.43V61.45H97.3499ZM130.79 87.81C133.18 86.7 137.09 86.5 137.91 83.52C132.48 82.82 127.04 81.64 121.76 83.87C123.85 86.21 127.32 87.01 130.78 87.81M121.45 78.39C127.31 76.58 133.92 77.36 138.4 78.59L138.12 78.11C136.53 75.74 134.99 73.31 131.49 73.07C128.56 73.22 127.82 73.34 123.89 76.18L121.45 78.38V78.39Z" fill="#010101"/>
<path d="M42.1799 126.83C41.9999 125.27 41.1499 124.02 39.3699 124.02C38.0799 124.02 36.9099 124.69 36.9099 126.34C36.9099 127.9 38.4699 128.84 40.7099 130.51C43.0799 132.27 43.8399 133.41 43.8399 135.26C43.8399 137.92 41.1199 139.39 38.4399 139.39C37.1299 139.39 35.8399 139.15 34.6199 138.68C34.5099 138.62 34.4499 138.49 34.4599 138.37V135.16H35.0399C35.2799 137.64 36.9099 138.62 38.6299 138.62C40.1899 138.65 41.4799 137.42 41.5099 135.86V135.79C41.5099 134.34 40.7299 133.15 37.3799 130.94C36.1699 130.14 34.6799 129.27 34.6799 126.83C34.6799 124.82 36.9099 123.24 39.4799 123.24C40.4399 123.24 41.7099 123.35 42.6099 123.66C42.7199 123.69 42.7799 123.8 42.7599 123.9V126.82H42.1799V126.83Z" fill="#010101"/>
<path d="M48.45 133.96L47.42 136.95C47.13 137.82 47.56 138.56 48.54 138.56V139.13H44.48V138.56C45.08 138.56 45.73 138.18 46.09 137.44C47.05 135.48 49.66 128.18 51.51 123.25H52.76C54.28 127.74 56.56 134.61 57.31 136.6C57.8 137.85 58.16 138.56 59.12 138.56V139.13H53.92V138.56C55.33 138.56 55.46 137.82 55.1 136.84L54.14 133.96H48.44H48.45ZM53.85 133.11L51.48 125.85H51.44L48.78 133.11H53.85Z" fill="#010101"/>
<path d="M64.72 133.96L63.69 136.95C63.4 137.82 63.82 138.56 64.81 138.56V139.13H60.75V138.56C61.35 138.56 62 138.18 62.36 137.44C63.32 135.48 65.93 128.18 67.78 123.25H69.03C70.56 127.74 72.83 134.61 73.59 136.6C74.08 137.85 74.44 138.56 75.4 138.56V139.13H70.2V138.56C71.61 138.56 71.74 137.82 71.38 136.84L70.42 133.96H64.72ZM70.13 133.11L67.76 125.85H67.72L65.06 133.11H70.13Z" fill="#010101"/>
<path d="M77.3799 138.55C79.3899 138.31 79.2999 138.42 79.2999 136.34V126.3C79.2999 124.22 79.3899 124.33 77.3799 124.09V123.52H83.3799V124.09C81.3699 124.33 81.4699 124.22 81.4699 126.3V136.7C81.4699 138.26 82.3399 138.42 84.3399 138.42C87.5699 138.42 87.4399 137.5 88.4699 135.12H89.0299L88.3599 139.13H77.3799V138.55Z" fill="#010101"/>
<path d="M95.4999 131.05H97.6199C99.0299 131.05 99.6299 130.49 99.6799 129.11H100.25V133.89H99.6799C99.6099 132.57 99.1199 131.77 97.6199 131.77H95.4999V136.35C95.4999 138.43 95.4099 138.31 97.4199 138.56V139.13H91.4099V138.56C93.4199 138.31 93.3199 138.43 93.3199 136.35V126.3C93.3199 124.23 93.4099 124.34 91.4099 124.09V123.52H101.38V127.11H100.81C100.52 125.46 100.14 124.23 98.5299 124.23H95.4899V131.05H95.4999Z" fill="#010101"/>
<path d="M103.69 138.55C105.7 138.31 105.61 138.42 105.61 136.34V126.3C105.61 124.22 105.7 124.33 103.69 124.09V123.52H113.67V127.11H113.1C112.88 125.46 112.43 124.23 110.82 124.23H107.78V130.61H109.66C111.07 130.61 111.67 130.05 111.71 128.67H112.28V133.42H111.71C111.67 132.1 111.15 131.32 109.66 131.32H107.78V136.36C107.78 138.26 108.65 138.41 110.66 138.41C113.91 138.41 113.74 137.49 114.77 135.11H115.34L114.67 139.12H103.69V138.54V138.55Z" fill="#010101"/>
<path d="M117.75 138.55C119.76 138.31 119.67 138.42 119.67 136.34V126.3C119.67 124.22 119.76 124.33 117.75 124.09V123.52H123.76V124.09C121.75 124.33 121.84 124.22 121.84 126.3V136.7C121.84 138.26 122.71 138.42 124.71 138.42C127.95 138.42 127.81 137.5 128.84 135.12H129.4L128.73 139.13H117.76V138.55H117.75Z" fill="#010101"/>
<path d="M131.35 123.51H138.76C144.16 123.51 146.93 126.28 146.93 130.87C146.93 135.46 143.65 139.13 138.11 139.13H131.35V138.56C133.36 138.31 133.26 138.43 133.26 136.35V126.3C133.26 124.23 133.35 124.33 131.35 124.09V123.51ZM135.43 135.96C135.43 138.39 135.99 138.42 138.1 138.42C141.62 138.42 144.37 136.54 144.37 130.92C144.37 126.68 142.09 124.23 137.81 124.23H135.43V135.96Z" fill="#010101"/>
<path d="M148.56 138.55C150.57 138.31 150.48 138.42 150.48 136.34V126.3C150.48 124.22 150.57 124.33 148.56 124.09V123.52H158.54V127.11H157.97C157.75 125.46 157.3 124.23 155.69 124.23H152.65V130.61H154.52C155.93 130.61 156.53 130.05 156.58 128.67H157.15V133.42H156.58C156.53 132.1 156.02 131.32 154.52 131.32H152.65V136.36C152.65 138.26 153.52 138.41 155.53 138.41C158.77 138.41 158.61 137.49 159.64 135.11H160.21L159.54 139.12H148.57V138.54H148.56V138.55Z" fill="#010101"/>
<path d="M176.37 139.13C172.82 134.93 169.14 130.53 165.5 126.25V136.12C165.52 136.53 165.56 136.93 165.63 137.33C165.74 138.13 166.5 138.44 167.97 138.56V139.13H162.5V138.56C163.57 138.45 164.31 138.14 164.42 137.33C164.49 136.93 164.54 136.53 164.55 136.12V125.61C163.93 124.81 163.23 124.09 161.96 124.09V123.52H166.02C169.35 127.56 172.81 131.67 176.13 135.71H176.17V126.51C176.15 126.11 176.11 125.7 176.04 125.31C175.93 124.51 175.17 124.19 173.7 124.08V123.51H179.17V124.08C178.12 124.19 177.36 124.5 177.26 125.31C177.19 125.71 177.14 126.11 177.13 126.51V139.12H176.36H176.37V139.13Z" fill="#010101"/>
<path d="M50.8799 162.14C52.8899 161.9 52.7999 162.01 52.7999 159.93V149.89C52.7999 147.81 52.8899 147.92 50.8799 147.68V147.11H56.8899V147.68C54.8799 147.92 54.9699 147.81 54.9699 149.89V160.29C54.9699 161.85 55.8399 162.01 57.8399 162.01C61.0699 162.01 60.9399 161.09 61.9699 158.71H62.5299L61.8599 162.72H50.8899V162.15H50.8799V162.14Z" fill="#010101"/>
<path d="M64.48 162.14C66.49 161.9 66.4 162.01 66.4 159.93V149.89C66.4 147.81 66.49 147.92 64.48 147.68V147.11H74.46V150.7H73.89C73.67 149.05 73.22 147.82 71.61 147.82H68.57V154.2H70.45C71.86 154.2 72.46 153.64 72.5 152.26H73.07V157.01H72.5C72.45 155.69 71.94 154.91 70.45 154.91H68.57V159.95C68.57 161.85 69.44 162.01 71.45 162.01C74.69 162.01 74.53 161.09 75.56 158.71H76.13L75.46 162.72H64.48V162.14Z" fill="#010101"/>
<path d="M77.8199 155.2C77.8199 150.38 81.5699 146.83 86.2099 146.83C90.8499 146.83 93.8699 151 93.8699 154.44C93.8699 159.15 90.34 162.99 85.41 162.99C81.15 162.99 77.8199 159.53 77.8199 155.2ZM91.3299 155.11C91.3299 149.77 88.45 147.61 85.7299 147.61C81.9399 147.61 80.3799 151 80.3799 154.04C80.3799 159.44 83.1499 162.21 86.0299 162.21C90.1799 162.21 91.3399 158.1 91.3399 155.11" fill="#010101"/>
<path d="M96.1299 154.82C96.1299 151.38 99.0299 146.83 105.06 146.83C107.22 146.83 108.25 147.23 109.34 147.59C109.96 147.79 110.21 148.1 110.21 148.46V151.34H109.64C109.58 149.56 108.44 147.61 104.89 147.61C100.22 147.61 98.7099 150.83 98.6899 154.64C98.6699 158.17 100.45 162.21 104.99 162.21C107.78 162.21 108.03 161.18 108.03 159.44V158.08C108.03 156 108.12 156.11 105.66 155.87V155.3H112.1V155.87C110.09 156.11 110.19 156 110.19 158.08V161.96C108.49 162.63 106.67 162.98 104.84 162.99C100.26 162.99 96.1299 160.8 96.1299 154.82Z" fill="#010101"/>
<path d="M116.55 157.54L115.53 160.53C115.24 161.4 115.66 162.14 116.65 162.14V162.71H112.58V162.14C113.18 162.14 113.83 161.76 114.19 161.02C115.15 159.06 117.76 151.76 119.61 146.82H120.86C122.39 151.31 124.66 158.18 125.41 160.17C125.9 161.42 126.26 162.13 127.22 162.13V162.7H122.02V162.13C123.43 162.13 123.56 161.39 123.2 160.41L122.24 157.53H116.54L116.55 157.54ZM121.95 156.7L119.58 149.44H119.53L116.87 156.7H121.95Z" fill="#010101"/>
<path d="M142.51 162.72C138.96 158.52 135.28 154.12 131.64 149.84V159.71C131.66 160.11 131.7 160.52 131.77 160.92C131.88 161.72 132.64 162.04 134.12 162.15V162.72H128.65V162.15C129.72 162.04 130.46 161.73 130.57 160.92C130.64 160.52 130.69 160.12 130.7 159.71V149.2C130.08 148.4 129.38 147.68 128.11 147.68V147.11H132.17C135.5 151.15 138.96 155.26 142.28 159.3H142.33V150.13C142.31 149.73 142.27 149.32 142.19 148.93C142.08 148.13 141.32 147.81 139.85 147.7V147.13H145.33V147.7C144.28 147.81 143.52 148.12 143.42 148.93C143.35 149.33 143.3 149.73 143.29 150.13V162.74L142.51 162.72Z" fill="#010101"/>
<path d="M146.37 154.82C146.37 151.38 149.27 146.83 155.3 146.83C157.46 146.83 158.49 147.23 159.58 147.59C160.21 147.79 160.45 148.1 160.45 148.46V151.34H159.88C159.82 149.56 158.68 147.61 155.13 147.61C150.46 147.61 148.95 150.83 148.92 154.64C148.9 158.17 150.68 162.21 155.22 162.21C158.01 162.21 158.26 161.18 158.26 159.44V158.08C158.26 156 158.35 156.11 155.89 155.87V155.3H162.33V155.87C160.32 156.11 160.42 156 160.42 158.08V161.96C158.72 162.63 156.9 162.98 155.07 162.99C150.5 162.99 146.37 160.8 146.37 154.82Z" fill="#010101"/>
</g>
<defs>
<clipPath id="clip0_142_2252">
<rect width="212" height="212" fill="white"/>
</clipPath>
</defs>
</svg>

<svg fill="none" height="212" viewBox="0 0 212 212" width="212" xmlns="http://www.w3.org/2000/svg" xmlns:xlink="http://www.w3.org/1999/xlink"><clipPath id="a"><path d="m0 0h212v212h-212z"/></clipPath><g clip-path="url(#a)"><path d="m206 0h-200c-3.31371 0-6 2.68629-6 6v200c0 3.314 2.68629 6 6 6h200c3.314 0 6-2.686 6-6v-200c0-3.31371-2.686-6-6-6z" fill="#f5f5f5"/><g fill="#010101"><path d="m118.38 102.62c2.24 5.01-13.79 2.38-22.7001 6.37-8.9 3.99-7.3 13.07-9.54 8.06-2.85-6.37 3.27-12.34 12.06-16.27.8-.35 1.6-.68 2.3901-.96.53-.47.66-1.1.29-1.93-2.2401-5-11.2701-5.83-20.1701-1.84-6.69 3-11.84 7.16-12.66 11.8-2.4-.02-8.08-.96-4.44-9.73 1.34-2.9 4.29-7.58 10.42-10.19 8.98-3.82 23.15-1.36 20.91-6.36s-11.27-5.83-20.17-1.84c-3.34 1.49-6.41 3.88-8.82 6.53-.06-.06-3.45-3.15-1.85-6.04 1.72-3.11 5.18-5.28 9.3-6.49 9.36-2.75 21.94-.47 19.7-5.48s-11.27-5.83-20.17-1.85c-1.67.75-3.27 1.64-4.79 2.67-1.15-1.8-2.38-3.81-1.98-5.8 1.09-5.49 11.82-1.82 13.45-8.54 1.62-6.72 10.36-7.89 14.97-4.22 8.3001-.44 19.2801-1.6 23.6201 2.19 6.83 5.97 15.94 5.04 23.46 8.57-.18 5.89 6.06 12.9-.05 17.63.62 2.42 8.3 1.53 10.23.93-.31 3.44-8.49 4.37-11.37 5.49 2.03 1.37 2.14 3.32-.23 4.91-2.34 2.09-.41 3.23-.08 6.41.29 2.84-.27 5.37-2.62 7.45-2.02 2.24-6.91 3.69-11.45.89-2-1.23-4.35-2.59-8.38-3.54.27.35.5.74.69 1.15m-21.0501-41.14c0 2.88-.19 1.05-.14 4.88 0 0 .38 1.84.78 5.71 1.31 12.98 12.5801 29.4 36.3301 24.97l.22-.1-.1-1.96-.28-.19c-3.58-.75-21.3-5-20.39-15.68-.07-1.33.36-2.64 1.19-3.68 3.17-5.06 7.95-7.27 13.84-7.09l8.38 1.03c1.8-3.03-4.09-3.22-1.29-5.81-3.03-1.8-8.92-1.98-10.8-.41-.41 1.5 1.15 2.88-.8 3.47-3.44-.31-1.77-5.78-6.14-5.07l.67 3.4c-2.52-1.34-7.43-1.57-8.08-4.48 1.91-1.08 3.82-1.67 5.71-3.24-6.58-4.06-20.7101-.87-22.1601-1.84-2.63-1.76-8-2.54-8.26.98-.23 3.2 2.4 3.78 6.83 4.56l4.48.53v.02zm33.4401 26.36c2.39-1.11 6.3-1.31 7.12-4.29-5.43-.7-10.87-1.88-16.15.35 2.09 2.34 5.56 3.14 9.02 3.94m-9.33-9.42c5.86-1.81 12.47-1.03 16.95.2l-.28-.48c-1.59-2.37-3.13-4.8-6.63-5.04-2.93.15-3.67.27-7.6 3.11l-2.44 2.2z"/><path d="m42.1799 126.83c-.18-1.56-1.03-2.81-2.81-2.81-1.29 0-2.46.67-2.46 2.32 0 1.56 1.56 2.5 3.8 4.17 2.37 1.76 3.13 2.9 3.13 4.75 0 2.66-2.72 4.13-5.4 4.13-1.31 0-2.6-.24-3.82-.71-.11-.06-.17-.19-.16-.31v-3.21h.58c.24 2.48 1.87 3.46 3.59 3.46 1.56.03 2.85-1.2 2.88-2.76v-.07c0-1.45-.78-2.64-4.13-4.85-1.21-.8-2.7-1.67-2.7-4.11 0-2.01 2.23-3.59 4.8-3.59.96 0 2.23.11 3.13.42.11.03.17.14.15.24v2.92h-.58z"/><path d="m48.45 133.96-1.03 2.99c-.29.87.14 1.61 1.12 1.61v.57h-4.06v-.57c.6 0 1.25-.38 1.61-1.12.96-1.96 3.57-9.26 5.42-14.19h1.25c1.52 4.49 3.8 11.36 4.55 13.35.49 1.25.85 1.96 1.81 1.96v.57h-5.2v-.57c1.41 0 1.54-.74 1.18-1.72l-.96-2.88h-5.7zm5.4-.85-2.37-7.26h-.04l-2.66 7.26z"/><path d="m64.72 133.96-1.03 2.99c-.29.87.13 1.61 1.12 1.61v.57h-4.06v-.57c.6 0 1.25-.38 1.61-1.12.96-1.96 3.57-9.26 5.42-14.19h1.25c1.53 4.49 3.8 11.36 4.56 13.35.49 1.25.85 1.96 1.81 1.96v.57h-5.2v-.57c1.41 0 1.54-.74 1.18-1.72l-.96-2.88zm5.41-.85-2.37-7.26h-.04l-2.66 7.26z"/><path d="m77.3799 138.55c2.01-.24 1.92-.13 1.92-2.21v-10.04c0-2.08.09-1.97-1.92-2.21v-.57h6v.57c-2.01.24-1.91.13-1.91 2.21v10.4c0 1.56.87 1.72 2.87 1.72 3.23 0 3.1-.92 4.13-3.3h.56l-.67 4.01h-10.98z"/><path d="m95.4999 131.05h2.12c1.41 0 2.01-.56 2.06-1.94h.5701v4.78h-.5701c-.07-1.32-.56-2.12-2.06-2.12h-2.12v4.58c0 2.08-.09 1.96 1.92 2.21v.57h-6.01v-.57c2.01-.25 1.91-.13 1.91-2.21v-10.05c0-2.07.09-1.96-1.91-2.21v-.57h9.9701v3.59h-.57c-.29-1.65-.67-2.88-2.2801-2.88h-3.04v6.82z"/><path d="m103.69 138.55c2.01-.24 1.92-.13 1.92-2.21v-10.04c0-2.08.09-1.97-1.92-2.21v-.57h9.98v3.59h-.57c-.22-1.65-.67-2.88-2.28-2.88h-3.04v6.38h1.88c1.41 0 2.01-.56 2.05-1.94h.57v4.75h-.57c-.04-1.32-.56-2.1-2.05-2.1h-1.88v5.04c0 1.9.87 2.05 2.88 2.05 3.25 0 3.08-.92 4.11-3.3h.57l-.67 4.01h-10.98v-.58z"/><path d="m117.75 138.55c2.01-.24 1.92-.13 1.92-2.21v-10.04c0-2.08.09-1.97-1.92-2.21v-.57h6.01v.57c-2.01.24-1.92.13-1.92 2.21v10.4c0 1.56.87 1.72 2.87 1.72 3.24 0 3.1-.92 4.13-3.3h.56l-.67 4.01h-10.97v-.58z"/><path d="m131.35 123.51h7.41c5.4 0 8.17 2.77 8.17 7.36s-3.28 8.26-8.82 8.26h-6.76v-.57c2.01-.25 1.91-.13 1.91-2.21v-10.05c0-2.07.09-1.97-1.91-2.21zm4.08 12.45c0 2.43.56 2.46 2.67 2.46 3.52 0 6.27-1.88 6.27-7.5 0-4.24-2.28-6.69-6.56-6.69h-2.38z"/><path d="m148.56 138.55c2.01-.24 1.92-.13 1.92-2.21v-10.04c0-2.08.09-1.97-1.92-2.21v-.57h9.98v3.59h-.57c-.22-1.65-.67-2.88-2.28-2.88h-3.04v6.38h1.87c1.41 0 2.01-.56 2.06-1.94h.57v4.75h-.57c-.05-1.32-.56-2.1-2.06-2.1h-1.87v5.04c0 1.9.87 2.05 2.88 2.05 3.24 0 3.08-.92 4.11-3.3h.57l-.67 4.01h-10.97v-.58h-.01z"/><path d="m176.37 139.13c-3.55-4.2-7.23-8.6-10.87-12.88v9.87c.02.41.06.81.13 1.21.11.8.87 1.11 2.34 1.23v.57h-5.47v-.57c1.07-.11 1.81-.42 1.92-1.23.07-.4.12-.8.13-1.21v-10.51c-.62-.8-1.32-1.52-2.59-1.52v-.57h4.06c3.33 4.04 6.79 8.15 10.11 12.19h.04v-9.2c-.02-.4-.06-.81-.13-1.2-.11-.8-.87-1.12-2.34-1.23v-.57h5.47v.57c-1.05.11-1.81.42-1.91 1.23-.07.4-.12.8-.13 1.2v12.61h-.77.01z"/><path d="m50.8799 162.14c2.01-.24 1.92-.13 1.92-2.21v-10.04c0-2.08.09-1.97-1.92-2.21v-.57h6.01v.57c-2.01.24-1.92.13-1.92 2.21v10.4c0 1.56.87 1.72 2.87 1.72 3.23 0 3.1-.92 4.13-3.3h.56l-.67 4.01h-10.97v-.57h-.01z"/><path d="m64.48 162.14c2.01-.24 1.92-.13 1.92-2.21v-10.04c0-2.08.09-1.97-1.92-2.21v-.57h9.98v3.59h-.57c-.22-1.65-.67-2.88-2.28-2.88h-3.04v6.38h1.88c1.41 0 2.01-.56 2.05-1.94h.57v4.75h-.57c-.05-1.32-.56-2.1-2.05-2.1h-1.88v5.04c0 1.9.87 2.06 2.88 2.06 3.24 0 3.08-.92 4.11-3.3h.57l-.67 4.01h-10.98z"/><path d="m77.8199 155.2c0-4.82 3.75-8.37 8.39-8.37s7.66 4.17 7.66 7.61c0 4.71-3.5299 8.55-8.4599 8.55-4.26 0-7.5901-3.46-7.5901-7.79zm13.51-.09c0-5.34-2.8799-7.5-5.6-7.5-3.79 0-5.35 3.39-5.35 6.43 0 5.4 2.77 8.17 5.65 8.17 4.15 0 5.31-4.11 5.31-7.1"/><path d="m96.1299 154.82c0-3.44 2.9-7.99 8.9301-7.99 2.16 0 3.19.4 4.28.76.62.2.87.51.87.87v2.88h-.57c-.06-1.78-1.2-3.73-4.75-3.73-4.67 0-6.1801 3.22-6.2001 7.03-.02 3.53 1.7601 7.57 6.3001 7.57 2.79 0 3.04-1.03 3.04-2.77v-1.36c0-2.08.09-1.97-2.37-2.21v-.57h6.44v.57c-2.01.24-1.91.13-1.91 2.21v3.88c-1.7.67-3.52 1.02-5.35 1.03-4.58 0-8.7101-2.19-8.7101-8.17z"/><path d="m116.55 157.54-1.02 2.99c-.29.87.13 1.61 1.12 1.61v.57h-4.07v-.57c.6 0 1.25-.38 1.61-1.12.96-1.96 3.57-9.26 5.42-14.2h1.25c1.53 4.49 3.8 11.36 4.55 13.35.49 1.25.85 1.96 1.81 1.96v.57h-5.2v-.57c1.41 0 1.54-.74 1.18-1.72l-.96-2.88h-5.7zm5.4-.84-2.37-7.26h-.05l-2.66 7.26z"/><path d="m142.51 162.72c-3.55-4.2-7.23-8.6-10.87-12.88v9.87c.02.4.06.81.13 1.21.11.8.87 1.12 2.35 1.23v.57h-5.47v-.57c1.07-.11 1.81-.42 1.92-1.23.07-.4.12-.8.13-1.21v-10.51c-.62-.8-1.32-1.52-2.59-1.52v-.57h4.06c3.33 4.04 6.79 8.15 10.11 12.19h.05v-9.17c-.02-.4-.06-.81-.14-1.2-.11-.8-.87-1.12-2.34-1.23v-.57h5.48v.57c-1.05.11-1.81.42-1.91 1.23-.07.4-.12.8-.13 1.2v12.61z"/><path d="m146.37 154.82c0-3.44 2.9-7.99 8.93-7.99 2.16 0 3.19.4 4.28.76.63.2.87.51.87.87v2.88h-.57c-.06-1.78-1.2-3.73-4.75-3.73-4.67 0-6.18 3.22-6.21 7.03-.02 3.53 1.76 7.57 6.3 7.57 2.79 0 3.04-1.03 3.04-2.77v-1.36c0-2.08.09-1.97-2.37-2.21v-.57h6.44v.57c-2.01.24-1.91.13-1.91 2.21v3.88c-1.7.67-3.52 1.02-5.35 1.03-4.57 0-8.7-2.19-8.7-8.17z"/></g></g></svg>
